assets/aimg/isright.svg

<svg clip-rule="evenodd" fill-rule="evenodd" stroke-linejoin="round" stroke-miterlimit="2" viewBox="0 0 200 200" xmlns="http://www.w3.org/2000/svg"><g transform="matrix(1.13412 0 0 1.13412 -23.3677 -1.67869)"><path d="m168.091 34.47h-26.149l-34.968 87.834-25.98-28.069-20.967 12.304 33.851 38.028h30.382z" fill="#fff"/><path d="m105.765 115.806 32.901-82.641c.534-1.342 1.832-2.222 3.276-2.222h26.149c1.17 0 2.263.579 2.919 1.547.657.968.791 2.198.358 3.284l-43.832 110.098c-.534 1.342-1.832 2.222-3.276 2.222h-30.382c-1.006 0-1.965-.43-2.634-1.182l-33.851-38.028c-.703-.789-1.014-1.851-.85-2.894.165-1.044.788-1.958 1.699-2.493l20.967-12.303c1.428-.839 3.248-.57 4.373.646zm62.326-81.336h-26.149l-34.968 87.834-25.98-28.069-20.967 12.304 33.851 38.028h30.382z"/></g></svg>

<?xml version="1.0" encoding="UTF-8" standalone="no"?>
<!DOCTYPE svg PUBLIC "-//W3C//DTD SVG 1.1//EN" "http://www.w3.org/Graphics/SVG/1.1/DTD/svg11.dtd">
<svg width="100%" height="100%" viewBox="0 0 200 200" version="1.1" xmlns="http://www.w3.org/2000/svg" xmlns:xlink="http://www.w3.org/1999/xlink" xml:space="preserve" xmlns:serif="http://www.serif.com/" style="fill-rule:evenodd;clip-rule:evenodd;stroke-linejoin:round;stroke-miterlimit:2;">
    <g transform="matrix(1.13412,0,0,1.13412,-23.3677,-1.67869)">
        <path d="M168.091,34.47L141.942,34.47L106.974,122.304L80.994,94.235L60.027,106.539L93.878,144.567L124.26,144.567L168.091,34.47Z" style="fill:white;"/>
        <path d="M105.765,115.806L138.666,33.165C139.2,31.823 140.498,30.943 141.942,30.943L168.091,30.943C169.261,30.943 170.354,31.522 171.01,32.49C171.667,33.458 171.801,34.688 171.368,35.774L127.536,145.872C127.002,147.214 125.704,148.094 124.26,148.094L93.878,148.094C92.872,148.094 91.913,147.664 91.244,146.912L57.393,108.884C56.69,108.095 56.379,107.033 56.543,105.99C56.708,104.946 57.331,104.032 58.242,103.497L79.209,91.194C80.637,90.355 82.457,90.624 83.582,91.84L105.765,115.806ZM168.091,34.47L141.942,34.47L106.974,122.304L80.994,94.235L60.027,106.539L93.878,144.567L124.26,144.567L168.091,34.47Z"/>
    </g>
</svg>
